assets/svg/action_wallet_screenshot.svg

<svg width="80" height="80" viewBox="0 0 80 80" fill="none" xmlns="http://www.w3.org/2000/svg">
<path d="M58.9973 52.0953C58.6957 52.0953 58.4504 52.3406 58.4504 52.6422V70.0953C58.4504 73.8766 55.3738 76.9531 51.5926 76.9531H28.4066C24.6254 76.9531 21.5488 73.8766 21.5488 70.0953V18.3359C21.5488 18.0344 21.3035 17.7891 21.002 17.7891C20.7004 17.7891 20.4551 18.0344 20.4551 18.3359V70.0953C20.4551 74.4797 24.0223 78.0469 28.4066 78.0469H51.5941C55.9785 78.0469 59.5457 74.4797 59.5457 70.0953V52.6422C59.5452 52.497 59.4872 52.358 59.3844 52.2555C59.2816 52.153 59.1424 52.0954 58.9973 52.0953ZM51.5941 1.95312H28.4066C24.0223 1.95312 20.4551 5.52031 20.4551 9.90469V14.6234C20.4551 14.925 20.7004 15.1703 21.002 15.1703C21.3035 15.1703 21.5488 14.925 21.5488 14.6234V9.90469C21.5488 6.12344 24.6254 3.04688 28.4066 3.04688H51.5941C55.3754 3.04688 58.452 6.12344 58.452 9.90469V17.2609C58.452 17.5625 58.6973 17.8078 58.9988 17.8078C59.3004 17.8078 59.5457 17.5625 59.5457 17.2609V9.90469C59.5441 5.52031 55.977 1.95312 51.5941 1.95312Z" fill="#9A9A9A"/>
<path d="M44.3449 8.7082C45.4699 8.7082 46.3855 7.79258 46.3855 6.66758C46.3855 5.54258 45.4699 4.62695 44.3449 4.62695H35.6543C34.5293 4.62695 33.6137 5.54258 33.6137 6.66758C33.6137 7.79258 34.5293 8.7082 35.6543 8.7082H44.3449ZM45.2918 6.66758C45.2918 7.18945 44.8668 7.61445 44.3449 7.61445H42.1371C42.7574 7.17383 43.198 6.50039 43.3355 5.72227H44.3449C44.8668 5.7207 45.2918 6.1457 45.2918 6.66758ZM30.5449 73.7723C30.5449 74.0738 30.7902 74.3191 31.0918 74.3191H48.909C49.2105 74.3191 49.4559 74.0738 49.4559 73.7723C49.4559 73.4707 49.2105 73.2254 48.909 73.2254H31.0918C30.7887 73.2254 30.5449 73.4707 30.5449 73.7723Z" fill="#9A9A9A"/>
<path fill-rule="evenodd" clip-rule="evenodd" d="M59 48C66.1797 48 72 42.1797 72 35C72 27.8203 66.1797 22 59 22C51.8203 22 46 27.8203 46 35C46 42.1797 51.8203 48 59 48ZM52.0667 35C52.0667 31.1714 55.1714 28.0667 59 28.0667C62.8286 28.0667 65.9333 31.1714 65.9333 35C65.9333 38.8286 62.8286 41.9333 59 41.9333C55.1714 41.9333 52.0667 38.8286 52.0667 35ZM55.9257 39.8666C56.8457 40.4481 57.9116 40.757 59 40.7574C60.3244 40.759 61.6084 40.3025 62.6338 39.4644L54.5349 31.3662C53.8482 32.2106 53.4149 33.2324 53.2852 34.313C53.1554 35.3936 53.3346 36.4889 53.802 37.4718C54.2693 38.4547 55.0057 39.2851 55.9257 39.8666ZM63.4647 38.6334L55.3662 30.5356C56.4721 29.6411 57.87 29.1876 59.2904 29.2624C60.7108 29.3373 62.0532 29.9352 63.059 30.941C64.0648 31.9468 64.6627 33.2892 64.7376 34.7096C64.8124 36.1298 64.359 37.5275 63.4647 38.6334Z" fill="#FD4E4E"/>
<path d="M25 18V15C25 14.45 25.2028 13.979 25.6083 13.587C26.0138 13.195 26.5007 12.9993 27.069 13H30.1724V15H27.069V18H25ZM27.069 65C26.5 65 26.0128 64.804 25.6072 64.412C25.2017 64.02 24.9993 63.5493 25 63V60H27.069V63H30.1724V65H27.069ZM52.931 18V15H49.8276V13H52.931C53.5 13 53.9872 13.196 54.3928 13.588C54.7983 13.98 55.0007 14.4507 55 15V18H52.931ZM49.8276 65V63H52.931V60H55V63C55 63.55 54.7972 64.021 54.3917 64.413C53.9862 64.805 53.4993 65.0007 52.931 65H49.8276Z" fill="#FD4E4E"/>
<path d="M28 34C28 33.4477 28.4477 33 29 33H43C43.5523 33 44 33.4477 44 34C44 34.5523 43.5523 35 43 35H29C28.4477 35 28 34.5523 28 34Z" fill="#E1EAF8"/>
<path d="M28 39C28 38.4477 28.4477 38 29 38H43C43.5523 38 44 38.4477 44 39C44 39.5523 43.5523 40 43 40H29C28.4477 40 28 39.5523 28 39Z" fill="#E1EAF8"/>
<path d="M28 44C28 43.4477 28.4477 43 29 43H43C43.5523 43 44 43.4477 44 44C44 44.5523 43.5523 45 43 45H29C28.4477 45 28 44.5523 28 44Z" fill="#E1EAF8"/>
</svg>

<svg xmlns="http://www.w3.org/2000/svg" width="80" height="80" fill="none"><path fill="#9A9A9A" d="M58.997 52.095a.547.547 0 0 0-.547.547v17.453a6.866 6.866 0 0 1-6.857 6.858H28.407a6.866 6.866 0 0 1-6.858-6.858v-51.76a.547.547 0 0 0-1.094 0v51.76c0 4.385 3.567 7.952 7.952 7.952h23.187c4.384 0 7.952-3.567 7.952-7.952V52.642a.55.55 0 0 0-.549-.547M51.594 1.953H28.407c-4.385 0-7.952 3.567-7.952 7.952v4.718a.547.547 0 0 0 1.094 0V9.905a6.866 6.866 0 0 1 6.858-6.858h23.187a6.866 6.866 0 0 1 6.858 6.858v7.356a.547.547 0 0 0 1.094 0V9.905c-.002-4.385-3.569-7.952-7.952-7.952"/><path fill="#9A9A9A" d="M44.345 8.708c1.125 0 2.04-.915 2.04-2.04s-.915-2.041-2.04-2.041h-8.69c-1.126 0-2.041.916-2.041 2.04 0 1.126.915 2.041 2.04 2.041zm.947-2.04a.95.95 0 0 1-.947.946h-2.208a2.95 2.95 0 0 0 1.199-1.892h1.009a.946.946 0 0 1 .947.946M30.545 73.772c0 .302.245.547.547.547h17.817a.548.548 0 0 0 0-1.094H31.092a.547.547 0 0 0-.547.547"/><path fill="#FD4E4E" fill-rule="evenodd" d="M59 48c7.18 0 13-5.82 13-13s-5.82-13-13-13-13 5.82-13 13 5.82 13 13 13m-6.933-13a6.934 6.934 0 1 1 13.868.001A6.934 6.934 0 0 1 52.067 35m3.859 4.867c.92.581 1.986.89 3.074.89a5.73 5.73 0 0 0 3.634-1.293l-8.1-8.098a5.758 5.758 0 0 0 1.392 8.5m7.539-1.234-8.099-8.097a5.759 5.759 0 0 1 8.099 8.097" clip-rule="evenodd"/><path fill="#FD4E4E" d="M25 18v-3q0-.825.608-1.413A2.02 2.02 0 0 1 27.07 13h3.103v2H27.07v3zm2.069 47a2.03 2.03 0 0 1-1.462-.588A1.9 1.9 0 0 1 25 63v-3h2.069v3h3.103v2zm25.862-47v-3h-3.103v-2h3.103q.853 0 1.462.588Q55 14.176 55 15v3zm-3.103 47v-2h3.103v-3H55v3q0 .825-.608 1.413A2.02 2.02 0 0 1 52.93 65z"/><path fill="#E1EAF8" d="M28 34a1 1 0 0 1 1-1h14a1 1 0 1 1 0 2H29a1 1 0 0 1-1-1M28 39a1 1 0 0 1 1-1h14a1 1 0 1 1 0 2H29a1 1 0 0 1-1-1M28 44a1 1 0 0 1 1-1h14a1 1 0 1 1 0 2H29a1 1 0 0 1-1-1"/></svg>
